krita/pics/Breeze-light/light_edit-copy.svg

<!--Created with Inkscape (http://www.inkscape.org/)--><svg xmlns:dc="http://purl.org/dc/elements/1.1/" xmlns:cc="http://creativecommons.org/ns#" xmlns:rdf="http://www.w3.org/1999/02/22-rdf-syntax-ns#" xmlns="http://www.w3.org/2000/svg" xmlns:sodipodi="http://sodipodi.sourceforge.net/DTD/sodipodi-0.dtd" xmlns:inkscape="http://www.inkscape.org/namespaces/inkscape" width="22" height="22" id="svg3979" version="1.1" inkscape:version="0.48+devel r" sodipodi:docname="edit-copy.svg"><sodipodi:namedview id="base" pagecolor="#ffffff" bordercolor="#666666" borderopacity="1.0" inkscape:pageopacity="0.0" inkscape:pageshadow="2" inkscape:zoom="23.967943" inkscape:cx="4.1761278" inkscape:cy="11.472414" inkscape:document-units="px" inkscape:current-layer="layer1" showgrid="true" fit-margin-top="0" fit-margin-left="0" fit-margin-right="0" fit-margin-bottom="0" inkscape:window-width="1366" inkscape:window-height="669" inkscape:window-x="-4" inkscape:window-y="25" inkscape:window-maximized="1" inkscape:showpageshadow="false" showguides="true"><inkscape:grid type="xygrid" id="grid4125"/><sodipodi:guide position="2.0000144,19.99997" orientation="18,0" id="guide4131"/><sodipodi:guide position="2.0000144,1.9999696" orientation="0,18" id="guide4133"/><sodipodi:guide position="20.000014,1.9999696" orientation="-18,0" id="guide4135"/><sodipodi:guide position="20.000014,19.99997" orientation="0,-18" id="guide4137"/><sodipodi:guide position="3.0000144,18.99997" orientation="16,0" id="guide4139"/><sodipodi:guide position="3.0000144,2.9999696" orientation="0,16" id="guide4141"/><sodipodi:guide position="19.000014,2.9999696" orientation="-16,0" id="guide4143"/><sodipodi:guide position="19.000014,18.99997" orientation="0,-16" id="guide4145"/></sodipodi:namedview><metadata id="metadata3984"><rdf:RDF><cc:Work><dc:format>image/svg+xml</dc:format><dc:type rdf:resource="http://purl.org/dc/dcmitype/StillImage"/><dc:title/></cc:Work></rdf:RDF></metadata><g inkscape:label="Capa 1" inkscape:groupmode="layer" id="layer1" transform="translate(-601.714 -517.22)"><path style="opacity:1;fill:#d2d2d2;fill-opacity:1;stroke:none" d="M4 3v14h4v2h6l4-4V6h-2V3H4zm1 1h10v2H8v10H5V4zm4 3h8v7h-4v4H9V7z" transform="translate(601.714 517.22)" id="rect4147"/></g></svg>

<?xml version="1.0" encoding="UTF-8" standalone="no"?>
<!-- Created with Inkscape (http://www.inkscape.org/) -->

<svg
   xmlns:dc="http://purl.org/dc/elements/1.1/"
   xmlns:cc="http://creativecommons.org/ns#"
   xmlns:rdf="http://www.w3.org/1999/02/22-rdf-syntax-ns#"
   xmlns:svg="http://www.w3.org/2000/svg"
   xmlns="http://www.w3.org/2000/svg"
   xmlns:sodipodi="http://sodipodi.sourceforge.net/DTD/sodipodi-0.dtd"
   xmlns:inkscape="http://www.inkscape.org/namespaces/inkscape"
   width="22"
   height="22"
   id="svg3979"
   version="1.1"
   inkscape:version="0.48+devel r"
   sodipodi:docname="edit-copy.svg">
  <defs
     id="defs3981" />
  <sodipodi:namedview
     id="base"
     pagecolor="#ffffff"
     bordercolor="#666666"
     borderopacity="1.0"
     inkscape:pageopacity="0.0"
     inkscape:pageshadow="2"
     inkscape:zoom="23.967943"
     inkscape:cx="4.1761278"
     inkscape:cy="11.472414"
     inkscape:document-units="px"
     inkscape:current-layer="layer1"
     showgrid="true"
     fit-margin-top="0"
     fit-margin-left="0"
     fit-margin-right="0"
     fit-margin-bottom="0"
     inkscape:window-width="1366"
     inkscape:window-height="669"
     inkscape:window-x="-4"
     inkscape:window-y="25"
     inkscape:window-maximized="1"
     inkscape:showpageshadow="false"
     showguides="true">
    <inkscape:grid
       type="xygrid"
       id="grid4125" />
    <sodipodi:guide
       position="2.0000144,19.99997"
       orientation="18,0"
       id="guide4131" />
    <sodipodi:guide
       position="2.0000144,1.9999696"
       orientation="0,18"
       id="guide4133" />
    <sodipodi:guide
       position="20.000014,1.9999696"
       orientation="-18,0"
       id="guide4135" />
    <sodipodi:guide
       position="20.000014,19.99997"
       orientation="0,-18"
       id="guide4137" />
    <sodipodi:guide
       position="3.0000144,18.99997"
       orientation="16,0"
       id="guide4139" />
    <sodipodi:guide
       position="3.0000144,2.9999696"
       orientation="0,16"
       id="guide4141" />
    <sodipodi:guide
       position="19.000014,2.9999696"
       orientation="-16,0"
       id="guide4143" />
    <sodipodi:guide
       position="19.000014,18.99997"
       orientation="0,-16"
       id="guide4145" />
  </sodipodi:namedview>
  <metadata
     id="metadata3984">
    <rdf:RDF>
      <cc:Work
         rdf:about="">
        <dc:format>image/svg+xml</dc:format>
        <dc:type
           rdf:resource="http://purl.org/dc/dcmitype/StillImage" />
        <dc:title />
      </cc:Work>
    </rdf:RDF>
  </metadata>
  <g
     inkscape:label="Capa 1"
     inkscape:groupmode="layer"
     id="layer1"
     transform="translate(-601.71428,-517.21933)">
    <path
       style="opacity:1;fill:#d2d2d2;fill-opacity:1;stroke:none"
       d="M 4 3 L 4 4 L 4 17 L 5 17 L 7 17 L 8 17 L 8 18 L 8 19 L 14 19 L 18 15 L 18 14 L 18 7 L 18 6 L 16 6 L 16 3 L 15 3 L 5 3 L 4 3 z M 5 4 L 15 4 L 15 6 L 8 6 L 8 7 L 8 16 L 7 16 L 5 16 L 5 4 z M 9 7 L 17 7 L 17 14 L 14 14 L 13 14 L 13 15 L 13 18 L 9 18 L 9 7 z "
       transform="translate(601.71428,517.21933)"
       id="rect4147" />
  </g>
</svg>
